X: 1
T: Philabelula All the Way
R: hornpipe
M: C
L: 1/8
K: D
f>e \
| "D"d>c d>B A2 G>F | "Em"E>E F>G "A7"A2 B>c | "D"d>B A>B "A7"d>f e>c | "D"d2 A2 d2 :|
d>e \
| "D"f2 f2 f2 g>f | "Em"g>f e2 e4 | "Bm"d2 d2 "E7"d>f e>d | "A"c>d B>c "A7"A2 B>c ||
| "D"(3ded (3cBA "G"B>c "D"d2 | "D"(3ded (3cBA "G"B>c "D"d>f | "A7"e2 (3efg a>A (3ABc | "D"d2 f2 d2 |]
